packages/core/src/svgs/polc.svg

<svg width="24" height="24" viewBox="0 0 24 24" fill="none" xmlns="http://www.w3.org/2000/svg">
<g clip-path="url(#clip0_31_16188)">
<path d="M0 0H24V24H0V0Z" fill="#F0F3FA"/>
<path d="M11.7856 18.4287C15.2176 18.4287 17.9999 15.7424 17.9999 12.4287C17.9999 9.115 15.2176 6.42871 11.7856 6.42871C8.35352 6.42871 5.57129 9.115 5.57129 12.4287C5.57129 15.7424 8.35352 18.4287 11.7856 18.4287Z" fill="#C000A3"/>
<path d="M16.7144 10.2858C18.3712 10.2858 19.7144 9.03858 19.7144 7.50007C19.7144 5.96156 18.3712 4.71436 16.7144 4.71436C15.0575 4.71436 13.7144 5.96156 13.7144 7.50007C13.7144 9.03858 15.0575 10.2858 16.7144 10.2858Z" fill="#630655"/>
<path fill-rule="evenodd" clip-rule="evenodd" d="M9.85706 10.2856H6.95692C6.79192 10.2856 6.6582 10.4134 6.6582 10.5706C6.6582 10.7279 6.79192 10.8556 6.95692 10.8556C7.1562 10.8556 7.28563 10.9529 7.28563 11.1428V13.6024C7.28563 13.6872 7.26935 13.8179 7.15663 13.8586L7.13263 13.8672C6.94406 13.9345 6.85706 13.9658 6.85706 14.1428C6.85706 14.5315 7.74549 14.5714 8.14277 14.5714C8.59277 14.5714 9.42849 14.4526 9.42849 14.1428C9.42849 13.9585 9.3462 13.9285 9.1242 13.8586C9.02135 13.8265 8.99992 13.6872 8.99992 13.6024V12.8571H9.85706C10.1981 12.8571 10.5251 12.7216 10.7662 12.4805C11.0073 12.2394 11.1428 11.9124 11.1428 11.5714C11.1428 11.2304 11.0073 10.9033 10.7662 10.6622C10.5251 10.4211 10.1981 10.2856 9.85706 10.2856ZM8.99992 11.0986C8.99992 11.0044 9.08006 10.9285 9.17949 10.9285C9.55363 10.9285 9.85706 11.2165 9.85706 11.5714C9.85706 11.9262 9.55363 12.2142 9.17949 12.2142C9.15652 12.2148 9.13366 12.2109 9.11221 12.2027C9.09075 12.1945 9.07112 12.1822 9.05445 12.1664C9.03777 12.1506 9.02437 12.1316 9.01501 12.1106C9.00566 12.0897 9.00053 12.067 8.99992 12.0441V11.0986ZM16.7056 12.2211C16.8201 13.3988 15.7653 14.4466 14.3498 14.5611C12.9342 14.6759 11.6943 13.8141 11.5799 12.6359C11.4655 11.4582 12.5202 10.4104 13.9358 10.2959C15.3513 10.1811 16.5912 11.0429 16.7056 12.2211ZM14.8521 12.1859C15.1131 12.8258 15.0003 13.4549 14.6005 13.5908C14.2006 13.7271 13.6649 13.3182 13.4039 12.6779C13.1433 12.0376 13.2561 11.4085 13.6559 11.2722C14.0558 11.1368 14.5915 11.5461 14.8521 12.1859Z" fill="#F0F1F6"/>
<path d="M14.7427 6.65971C14.7427 6.532 14.8738 6.42871 14.9998 6.42871H15.857C15.983 6.42871 16.1338 6.532 16.1338 6.65971C16.1338 6.787 16.0318 6.85814 15.9058 6.85814H15.857V7.87385C15.857 8.01957 15.89 8.14728 16.034 8.14728H16.1188C16.1994 8.12585 16.4171 8.06971 16.4197 7.89185C16.424 7.64414 16.7141 7.69043 16.7141 7.87385C16.7141 8.14728 16.598 8.626 16.3571 8.56643C16.2714 8.545 16.2508 8.49057 16.0541 8.43828H14.9955C14.9759 8.43817 14.9566 8.4342 14.9385 8.4266C14.9205 8.419 14.9041 8.40792 14.8903 8.39399C14.8766 8.38007 14.8657 8.36356 14.8583 8.34542C14.8509 8.32728 14.8471 8.30787 14.8472 8.28828C14.8472 8.20514 14.918 8.14685 14.9998 8.14685V6.85814H14.9707C14.8447 6.85814 14.7427 6.787 14.7427 6.65971ZM18.7421 7.84128C18.6178 7.77828 18.503 7.867 18.461 7.91971C18.4292 7.95914 18.3864 8.03457 18.0885 8.03457C17.7165 8.03457 17.4821 7.37028 17.4967 7.23142C17.5112 7.09257 17.5494 6.86928 17.822 6.85728C18.0945 6.84528 18.1794 6.99314 18.2998 7.23142C18.3958 7.42214 18.5411 7.41571 18.6015 7.38828C18.6984 7.339 18.8844 7.20057 18.8535 7.04114C18.8154 6.84228 18.7421 6.57357 18.6427 6.54057C18.563 6.514 18.4177 6.56157 18.3555 6.58857C18.245 6.47028 17.9814 6.43257 17.8627 6.42871C17.2181 6.42871 16.7141 6.92371 16.7141 7.45171C16.7141 7.98014 17.2065 8.57157 17.8627 8.57157C18.3881 8.57157 18.6684 8.34614 18.7421 8.23343C18.794 8.12885 18.8664 7.90385 18.7421 7.84128Z" fill="#F0F3FA"/>
</g>
<defs>
<clipPath id="clip0_31_16188">
<rect width="24" height="24" fill="white"/>
</clipPath>
</defs>
</svg>

<svg xmlns="http://www.w3.org/2000/svg" width="24" height="24" fill="none" viewBox="0 0 24 24"><g clip-path="url(#a)"><path fill="#F0F3FA" d="M0 0h24v24H0z"/><path fill="#C000A3" d="M11.786 18.429c3.432 0 6.214-2.687 6.214-6s-2.782-6-6.214-6-6.215 2.686-6.215 6 2.783 6 6.215 6"/><path fill="#630655" d="M16.714 10.286c1.657 0 3-1.247 3-2.786s-1.343-2.786-3-2.786c-1.656 0-3 1.248-3 2.786s1.343 2.786 3 2.786"/><path fill="#F0F1F6" fill-rule="evenodd" d="M9.857 10.286h-2.9a.29.29 0 0 0-.299.285c0 .157.134.285.299.285.2 0 .329.097.329.287v2.46c0 .084-.017.215-.13.256l-.023.008c-.189.067-.276.099-.276.276 0 .388.888.428 1.286.428.45 0 1.285-.118 1.285-.428 0-.184-.082-.215-.304-.284-.103-.033-.124-.172-.124-.257v-.745h.857a1.286 1.286 0 0 0 0-2.571M9 11.099c0-.095.08-.17.18-.17.374 0 .677.287.677.642s-.303.643-.678.643a.176.176 0 0 1-.18-.17zm7.706 1.122c.114 1.178-.94 2.226-2.356 2.34-1.416.115-2.656-.747-2.77-1.925s.94-2.226 2.356-2.34c1.415-.115 2.655.747 2.77 1.925m-1.854-.035c.261.64.148 1.269-.252 1.405s-.935-.273-1.196-.913-.148-1.27.252-1.406.935.274 1.196.914" clip-rule="evenodd"/><path fill="#F0F3FA" d="M14.743 6.66c0-.128.13-.231.257-.231h.857c.126 0 .277.103.277.23 0 .128-.102.2-.228.2h-.049v1.015c0 .146.033.273.177.273h.085c.08-.021.298-.077.3-.255.005-.248.295-.202.295-.018 0 .273-.116.752-.357.692-.086-.021-.106-.075-.303-.128h-1.058a.15.15 0 0 1-.149-.15c0-.083.071-.141.153-.141V6.858h-.03c-.125 0-.227-.071-.227-.198m4 1.181c-.125-.063-.24.026-.282.079-.032.04-.075.115-.372.115-.372 0-.607-.665-.592-.804.014-.138.052-.362.325-.374s.357.136.478.374c.096.191.241.185.302.157.096-.049.282-.187.252-.347-.039-.199-.112-.467-.211-.5-.08-.027-.225.02-.288.048-.11-.119-.374-.156-.492-.16-.645 0-1.149.495-1.149 1.023s.492 1.12 1.149 1.12c.525 0 .805-.226.88-.339.051-.104.123-.33 0-.392"/></g><defs><clipPath id="a"><path fill="#fff" d="M0 0h24v24H0z"/></clipPath></defs></svg>
